app-template/mira/img/dollar-blue.svg

<?xml version="1.0" encoding="UTF-8" standalone="no"?>
<!-- Generator: Adobe Illustrator 21.0.0, SVG Export Plug-In . SVG Version: 6.00 Build 0)  -->

<svg
   xmlns:dc="http://purl.org/dc/elements/1.1/"
   xmlns:cc="http://creativecommons.org/ns#"
   xmlns:rdf="http://www.w3.org/1999/02/22-rdf-syntax-ns#"
   xmlns:svg="http://www.w3.org/2000/svg"
   xmlns="http://www.w3.org/2000/svg"
   xmlns:sodipodi="http://sodipodi.sourceforge.net/DTD/sodipodi-0.dtd"
   xmlns:inkscape="http://www.inkscape.org/namespaces/inkscape"
   version="1.1"
   id="Слой_1"
   x="0px"
   y="0px"
   viewBox="0 0 236.60001 236.60001"
   enable-background="new 0 0 500 500"
   xml:space="preserve"
   inkscape:version="0.91 r13725"
   sodipodi:docname="dollar-blue.svg"
   width="236.60001"
   height="236.60001"><metadata
     id="metadata3368"><rdf:RDF><cc:Work
         rdf:about=""><dc:format>image/svg+xml</dc:format><dc:type
           rdf:resource="http://purl.org/dc/dcmitype/StillImage" /><dc:title></dc:title></cc:Work></rdf:RDF></metadata><defs
     id="defs3366" /><sodipodi:namedview
     pagecolor="#ffffff"
     bordercolor="#666666"
     borderopacity="1"
     objecttolerance="10"
     gridtolerance="10"
     guidetolerance="10"
     inkscape:pageopacity="0"
     inkscape:pageshadow="2"
     inkscape:window-width="1393"
     inkscape:window-height="824"
     id="namedview3364"
     showgrid="false"
     fit-margin-top="0"
     fit-margin-left="0"
     fit-margin-right="0"
     fit-margin-bottom="0"
     inkscape:zoom="1.7"
     inkscape:cx="119"
     inkscape:cy="118.6"
     inkscape:window-x="284"
     inkscape:window-y="117"
     inkscape:window-maximized="0"
     inkscape:current-layer="Слой_1" /><g
     id="g3358"
     transform="translate(-131,-132)"><path
       d="M 249.3,132 C 183.9,132 131,184.9 131,250.3 c 0,65.4 52.9,118.3 118.3,118.3 65.4,0 118.3,-52.9 118.3,-118.3 C 367.6,184.9 314.8,132 249.3,132 l 0,0 z m 0,222.7 c -57.1,0 -104.4,-47.3 -104.4,-104.4 0,-57.1 47.3,-104.4 104.4,-104.4 57.1,0 104.4,47.3 104.4,104.4 0,57.1 -47.3,104.4 -104.4,104.4 l 0,0 z m 0,0"
       id="path3360"
       inkscape:connector-curvature="0"
       style="fill:#344e9d" /><path
       d="m 278.6,225.3 c 0,4.2 2.8,7 7,7 4.2,0 7,-2.8 7,-7 0,-16.3 -15.8,-29.1 -36.2,-31.5 l 0,-6.1 c 0,-4.2 -2.8,-7 -7,-7 -4.2,0 -7,2.8 -7,7 l 0,6.1 c -20.4,2.4 -36.2,15.2 -36.2,31.5 0,16.3 15.8,29.1 36.2,31.5 l 0,36.1 c -12.3,-2 -22.3,-9.2 -22.3,-17.5 0,-4.2 -2.8,-7 -7,-7 -4.2,0 -7,2.8 -7,7 0,16.3 15.8,29.1 36.2,31.5 l 0,6.1 c 0,4.2 2.8,7 7,7 4.2,0 7,-2.8 7,-7 l 0,-6.1 c 20.4,-2.4 36.2,-15.2 36.2,-31.5 0,-16.3 -15.8,-29.1 -36.2,-31.5 l 0,-36.1 c 12.3,2.1 22.3,9.2 22.3,17.5 l 0,0 z m -58.5,0 c 0,-8.2 10,-15.4 22.3,-17.5 l 0,34.9 c -12.3,-2 -22.3,-9.2 -22.3,-17.4 l 0,0 z m 58.5,50.1 c 0,8.2 -10,15.4 -22.3,17.5 l 0,-34.9 c 12.3,2 22.3,9.2 22.3,17.4 l 0,0 z m 0,0"
       id="path3362"
       inkscape:connector-curvature="0"
       style="fill:#344e9d" /></g></svg>

<?xml version="1.0" encoding="utf-8"?>
<!-- Generator: Adobe Illustrator 21.0.0, SVG Export Plug-In . SVG Version: 6.00 Build 0)  -->
<svg version="1.1" id="Слой_1" xmlns="http://www.w3.org/2000/svg" xmlns:xlink="http://www.w3.org/1999/xlink" x="0px" y="0px"
	 viewBox="0 0 500 500" enable-background="new 0 0 500 500" xml:space="preserve">
<g>
	<path fill="#344E9D" d="M249.3,132C183.9,132,131,184.9,131,250.3s52.9,118.3,118.3,118.3s118.3-52.9,118.3-118.3
		S314.8,132,249.3,132L249.3,132z M249.3,354.7c-57.1,0-104.4-47.3-104.4-104.4s47.3-104.4,104.4-104.4s104.4,47.3,104.4,104.4
		S306.4,354.7,249.3,354.7L249.3,354.7z M249.3,354.7"/>
	<path fill="#344E9D" d="M278.6,225.3c0,4.2,2.8,7,7,7c4.2,0,7-2.8,7-7c0-16.3-15.8-29.1-36.2-31.5v-6.1c0-4.2-2.8-7-7-7s-7,2.8-7,7
		v6.1c-20.4,2.4-36.2,15.2-36.2,31.5c0,16.3,15.8,29.1,36.2,31.5v36.1c-12.3-2-22.3-9.2-22.3-17.5c0-4.2-2.8-7-7-7c-4.2,0-7,2.8-7,7
		c0,16.3,15.8,29.1,36.2,31.5v6.1c0,4.2,2.8,7,7,7s7-2.8,7-7v-6.1c20.4-2.4,36.2-15.2,36.2-31.5c0-16.3-15.8-29.1-36.2-31.5v-36.1
		C268.6,209.9,278.6,217,278.6,225.3L278.6,225.3z M220.1,225.3c0-8.2,10-15.4,22.3-17.5v34.9C230.1,240.7,220.1,233.5,220.1,225.3
		L220.1,225.3z M278.6,275.4c0,8.2-10,15.4-22.3,17.5v-34.9C268.6,260,278.6,267.2,278.6,275.4L278.6,275.4z M278.6,275.4"/>
</g>
</svg>
